icon-themes/breeze_svg/cmd/32/linearrowcircle.svg

<svg viewBox="0 0 32 32" xmlns="http://www.w3.org/2000/svg"><path d="m9 13-5 3 5 3v-2h13.173828a3 3 0 0 0 2.826172 2 3 3 0 0 0 3-3 3 3 0 0 0 -3-3 3 3 0 0 0 -2.824219 2h-13.175781z" fill="#4d4d4d"/></svg>

<svg xmlns="http://www.w3.org/2000/svg" viewBox="0 0 32 32">
 <path 
     style="fill:#4d4d4d" 
     d="M 9 13 L 4 16 L 9 19 L 9 17 L 22.173828 17 A 3 3 0 0 0 25 19 A 3 3 0 0 0 28 16 A 3 3 0 0 0 25 13 A 3 3 0 0 0 22.175781 15 L 9 15 L 9 13 z "
     />
</svg>
